_includes/icons/gitter.svg

<svg xmlns="http://www.w3.org/2000/svg" width="24" height="24" viewBox="0 0 50 50">
    <path d="M 10 2 C 9.448 2 9 2.447 9 3 L 9 30 C 9 30.553 9.448 31 10 31 L 14 31 C 14.552 31 15 30.553 15 30 L 15 3 C 15 2.447 14.552 2 14 2 L 10 2 z M 19 9 C 18.448 9 18 9.447 18 10 L 18 47 C 18 47.553 18.448 48 19 48 L 23 48 C 23.552 48 24 47.553 24 47 L 24 10 C 24 9.447 23.552 9 23 9 L 19 9 z M 28 9 C 27.448 9 27 9.447 27 10 L 27 47 C 27 47.553 27.448 48 28 48 L 32 48 C 32.552 48 33 47.553 33 47 L 33 10 C 33 9.447 32.552 9 32 9 L 28 9 z M 37 9 C 36.448 9 36 9.447 36 10 L 36 30 C 36 30.553 36.448 31 37 31 L 41 31 C 41.552 31 42 30.553 42 30 L 42 10 C 42 9.447 41.552 9 41 9 L 37 9 z"></path>
</svg>

<svg xmlns="http://www.w3.org/2000/svg" width="24" height="24" viewBox="0 0 50 50">
  <path d="M10 2a1 1 0 0 0-1 1v27a1 1 0 0 0 1 1h4a1 1 0 0 0 1-1V3a1 1 0 0 0-1-1h-4zm9 7a1 1 0 0 0-1 1v37a1 1 0 0 0 1 1h4a1 1 0 0 0 1-1V10a1 1 0 0 0-1-1h-4zm9 0a1 1 0 0 0-1 1v37a1 1 0 0 0 1 1h4a1 1 0 0 0 1-1V10a1 1 0 0 0-1-1h-4zm9 0a1 1 0 0 0-1 1v20a1 1 0 0 0 1 1h4a1 1 0 0 0 1-1V10a1 1 0 0 0-1-1h-4z"/>
</svg>
